X:1
T: The Marquis of Hastings
T: Lord Moira
C:
R:Strathspey
Q: 128
K:F
M:4/4
L:1/16
|:FF3 F3F Ac3 c4|B3G AF3 G3F EC3|FF3 F3F Ac3 c4|d3f efge f4 fa3:|
ff3 a3f g3f ec3|dd3 f3d c3B AF3|ff3 a3f g3f ec3|d3f efge f4 f2ga|
b3g a3f g3f df3|dcBA f3A BAGF G3A|FF3 F3F Bd3 d4|c3f efge f4 fa3|
|:A3F c3F dcBA c3f|A3F c3F G3A B2d2|A3F c3F dcBA c3f|d3f efge fgag fa3:|
fa3 fa3 eg3 c4|d3e f3d c3B A2F2|((3f2g2a2) ((3f2g2a2) ((3e2f2g2) c4|d3f efge f4 f2ga|
db3 ca3 Bg3 Af3|c3B A3F G3F E2C2|((3F2G2A2) ((3G2A2B2) ((3A2B2c2) ((3B2c2d2) |c3f agfe gfed cBAG||
